<?xml version="1.0" encoding="UTF-8"?>
<map version="1.10" tiledversion="1.12.2" orientation="orthogonal" renderorder="right-down" width="40" height="20" tilewidth="16" tileheight="16" infinite="0" nextlayerid="8" nextobjectid="67">
 <editorsettings>
  <export target="Mapa.lua" format="lua"/>
 </editorsettings>
 <tileset firstgid="1" name="Grass" tilewidth="16" tileheight="16" tilecount="77" columns="11">
  <image source="Grass.png" width="176" height="112"/>
 </tileset>
 <tileset firstgid="78" name="Road copiar" tilewidth="16" tileheight="16" tilecount="20" columns="5">
  <image source="Road copiar.png" width="80" height="64"/>
 </tileset>
 <tileset firstgid="98" name="Spring Crops" tilewidth="16" tileheight="16" tilecount="112" columns="14">
  <image source="Spring Crops.png" width="224" height="128"/>
 </tileset>
 <tileset firstgid="210" name="Maple Tree" tilewidth="16" tileheight="16" tilecount="30" columns="10">
  <image source="Maple Tree.png" width="160" height="48"/>
 </tileset>
 <tileset firstgid="240" name="Water" tilewidth="16" tileheight="16" tilecount="4" columns="4">
  <image source="Water.png" width="64" height="16"/>
 </tileset>
 <tileset firstgid="244" name="Wood_Bridge" tilewidth="16" tileheight="16" tilecount="15" columns="5">
  <image source="Wood_Bridge.png" width="80" height="48"/>
 </tileset>
 <layer id="1" name="Piso" width="40" height="20">
  <data encoding="csv">
1,2,2,2,2,2,2,2,2,2,2,2,2,2,2,2,2,2,2,2,2,2,2,2,2,2,2,2,2,2,2,2,2,2,2,2,2,2,2,3,
12,13,13,13,13,13,13,13,13,13,13,13,13,13,13,13,13,13,13,13,13,13,13,13,13,13,13,13,13,13,13,13,13,13,13,13,13,13,13,14,
12,13,13,13,13,61,60,60,13,13,13,13,13,13,13,13,13,13,13,13,13,13,13,13,13,13,13,13,13,13,13,13,13,13,13,13,13,13,13,14,
12,13,13,13,13,13,60,60,13,13,13,13,13,13,13,13,13,13,13,13,13,13,13,13,13,60,13,13,13,13,13,13,13,13,13,13,13,13,13,14,
12,13,13,13,13,13,13,13,13,13,13,58,58,13,13,13,60,13,13,13,13,13,13,13,13,13,13,13,13,13,13,13,13,13,61,13,13,13,13,14,
12,13,13,13,61,13,58,13,13,13,13,58,58,13,13,13,13,13,13,13,13,13,13,13,13,13,13,13,13,13,13,13,13,13,60,13,13,13,13,14,
12,13,13,60,58,58,58,58,58,13,13,58,58,13,13,13,13,13,13,13,13,13,13,13,13,61,61,13,13,13,13,13,13,13,13,13,13,13,13,14,
12,58,58,13,13,13,13,13,13,13,13,58,58,13,13,13,13,13,13,13,13,13,13,13,13,13,13,13,13,13,13,13,13,13,13,13,13,13,13,14,
12,13,58,58,13,13,13,13,13,13,13,58,58,13,13,13,13,13,13,13,13,13,13,13,13,13,13,13,13,13,13,13,13,13,13,13,13,13,13,14,
12,13,13,13,13,13,13,13,13,13,13,58,58,13,13,13,13,61,13,60,13,13,13,13,13,13,13,13,60,13,13,13,13,13,13,13,13,13,13,14,
12,13,13,13,13,13,13,13,61,61,13,13,13,13,13,13,13,13,13,13,13,13,13,13,13,13,13,13,13,13,13,13,13,13,13,13,13,13,13,14,
12,13,13,13,13,13,13,13,13,13,13,13,13,13,13,13,13,13,13,13,13,13,13,13,13,13,13,13,13,13,13,13,13,13,13,13,13,13,13,14,
12,13,13,61,13,13,60,58,13,13,13,58,13,13,13,13,13,13,13,13,13,13,13,13,13,61,13,13,13,13,13,13,13,13,13,13,13,13,13,14,
12,13,13,61,13,13,13,13,13,13,13,58,13,13,13,13,13,13,13,13,60,13,13,13,13,13,13,13,13,13,13,13,13,13,13,13,13,13,13,14,
12,13,13,13,13,13,13,58,13,13,13,58,61,13,13,13,13,13,13,13,13,13,13,13,13,13,13,13,13,13,13,13,13,13,13,60,13,13,13,14,
12,13,13,13,13,13,13,13,13,13,13,13,13,13,60,13,13,13,13,13,13,13,13,13,13,13,60,13,13,13,13,13,13,13,13,13,13,13,13,14,
12,13,13,13,13,13,13,13,13,13,13,13,13,13,13,13,13,13,13,13,13,13,13,13,13,13,13,13,13,60,13,13,13,13,61,13,13,13,13,14,
12,13,13,61,58,61,13,13,13,13,13,13,13,13,13,13,13,13,13,13,13,13,13,13,13,13,13,13,13,13,13,13,13,13,13,13,13,13,13,14,
12,13,13,13,13,13,13,13,13,13,13,13,13,13,13,13,13,13,13,61,13,13,13,13,13,13,13,61,13,13,13,13,13,13,13,13,13,13,13,14,
23,24,24,24,24,24,24,24,24,24,24,24,24,24,24,24,24,24,24,24,24,24,24,24,24,24,24,24,24,24,24,24,24,24,24,24,24,24,24,25
</data>
 </layer>
 <layer id="5" name="Rocas" width="40" height="20">
  <data encoding="csv">
0,0,0,0,0,0,0,0,0,0,0,0,0,0,0,0,0,0,0,0,0,0,0,0,0,0,0,0,0,0,0,0,0,0,0,0,0,0,0,0,
0,0,0,0,83,86,0,0,0,0,0,0,0,0,0,0,0,0,0,0,0,0,0,86,82,81,0,0,0,0,0,0,0,0,0,0,0,0,0,0,
0,85,0,0,0,0,0,0,0,0,0,0,0,0,0,0,0,0,0,0,0,0,0,0,81,86,0,0,0,0,0,0,0,0,0,0,0,0,0,0,
0,83,0,0,0,0,0,83,0,0,0,0,0,85,81,0,0,0,0,0,0,0,0,0,0,0,0,0,0,0,0,0,0,85,82,86,0,0,0,0,
0,0,0,0,0,0,0,82,0,0,0,0,0,86,86,0,0,0,0,0,0,0,0,0,0,0,0,0,0,0,0,0,0,81,82,85,0,0,0,0,
0,0,0,0,0,0,0,0,0,0,0,0,0,0,0,0,0,0,0,0,0,0,0,0,0,0,0,83,0,0,0,0,0,0,0,0,0,0,0,0,
0,0,0,0,0,0,0,0,0,0,0,0,0,0,0,0,0,0,0,0,0,0,0,0,0,0,0,0,0,0,0,0,0,0,0,0,0,0,0,0,
0,0,0,0,0,0,0,0,0,0,0,0,0,0,0,0,0,0,0,0,0,0,0,0,0,0,0,0,0,0,0,0,0,0,0,0,0,0,0,0,
0,0,0,0,0,0,0,0,0,0,0,86,0,0,0,0,86,0,0,0,0,0,80,89,0,0,0,0,0,0,0,0,0,0,0,0,0,0,0,0,
0,0,0,0,0,0,0,0,0,0,0,0,0,0,0,0,0,0,0,0,0,0,93,94,0,0,0,0,0,0,13,13,68,68,13,13,0,0,0,0,
12,60,61,61,79,82,0,0,0,0,13,13,13,13,68,68,13,0,0,0,0,0,0,0,0,0,0,0,68,13,13,13,13,68,13,13,68,68,0,0,
12,60,61,68,60,81,0,0,0,13,13,13,68,13,13,68,13,13,13,0,0,0,0,0,0,13,68,13,13,13,68,0,0,0,0,0,13,68,13,0,
0,0,0,60,68,60,68,60,68,13,13,0,0,0,0,0,0,13,68,13,0,0,0,0,13,13,13,13,13,13,0,0,0,0,0,0,0,68,13,14,
0,0,0,0,68,68,68,13,60,13,0,0,0,0,0,0,0,0,13,68,13,0,0,0,13,13,68,0,0,0,0,0,0,0,0,0,0,68,13,14,
86,0,0,0,0,0,0,82,86,0,0,86,0,0,0,0,0,0,0,13,13,13,13,13,68,68,0,0,0,0,0,0,0,83,0,0,0,0,0,0,
0,0,0,0,0,0,0,81,79,0,0,0,0,0,0,0,0,0,0,88,78,81,13,13,13,0,0,0,0,0,0,0,0,0,0,0,0,0,0,0,
0,0,0,0,0,0,0,0,0,0,0,0,0,0,0,0,0,0,0,86,0,86,0,0,0,0,0,0,0,0,0,0,0,0,0,0,0,0,0,0,
0,0,0,0,0,0,0,0,0,0,0,0,0,83,0,0,0,0,0,93,86,94,0,0,0,0,0,0,0,0,0,0,0,0,0,0,0,0,0,0,
0,86,0,0,0,0,0,83,0,0,0,0,0,0,0,0,0,0,0,0,0,0,0,0,0,0,0,0,0,0,0,0,82,86,0,0,0,0,0,0,
0,0,0,0,0,0,0,0,0,0,0,0,0,0,0,0,0,0,0,0,0,0,0,0,0,0,0,0,0,0,0,0,81,83,0,0,0,0,0,0
</data>
 </layer>
 <objectgroup id="7" name="Generacion">
  <object id="55" name="Enemigo 1" x="319.875" y="255.833" width="17.125" height="16.375"/>
  <object id="59" name="Enemigo 1" x="490.542" y="64.5" width="17.125" height="16.375"/>
  <object id="57" name="Enemigo 1" x="76.0417" y="224.292" width="17.125" height="16.375"/>
  <object id="60" name="Enemigo 2" x="64" y="47.75" width="16" height="15.75"/>
  <object id="62" name="Enemigo 2" x="296" y="75.4583" width="16" height="15.75"/>
  <object id="63" name="Enemigo 2" x="565.667" y="140.125" width="16" height="15.75"/>
  <object id="64" name="Enemigo 3" x="160.182" y="95.6364" width="15.6364" height="16.3636"/>
  <object id="65" name="Enemigo 3" x="202.182" y="213.818" width="15.6364" height="16.3636"/>
  <object id="66" name="Enemigo 3" x="591.182" y="228.818" width="15.6364" height="16.3636"/>
 </objectgroup>
 <objectgroup id="6" name="Limites">
  <object id="9" name="Pared" x="-0.0909091" y="0.0738636" width="2.78623" height="319.896"/>
  <object id="10" name="Pared" x="637.036" y="-0.0206667" width="2.84849" height="320.083"/>
  <object id="11" name="Pared" x="0.0454545" y="316.909" width="639.818" height="3.09091"/>
  <object id="13" name="Pared" x="0.0828478" y="0.079545" width="639.818" height="3.69961"/>
  <object id="14" name="Arbol" x="38.6667" y="49" width="18" height="13.6667"/>
  <object id="18" name="Arbol" x="118.667" y="160.833" width="18" height="13.6667"/>
  <object id="19" name="Arbol" x="54.4545" y="273.53" width="18" height="13.6667"/>
  <object id="20" name="Arbol" x="170.625" y="276.917" width="12.5" height="9.9167"/>
  <object id="21" name="Arbol" x="247" y="242.5" width="18" height="13.6667"/>
  <object id="22" name="Arbol" x="230.455" y="113.591" width="18" height="13.6667"/>
  <object id="23" name="Arbol" x="170.273" y="66.2576" width="13.8182" height="11.6667"/>
  <object id="24" name="Arbol" x="422" y="241.5" width="18" height="13.6667"/>
  <object id="25" name="Arbol" x="457.667" y="288.833" width="12" height="13.6667"/>
  <object id="26" name="Arbol" x="346.333" y="212.292" width="12.6667" height="10.5417"/>
  <object id="27" name="Arbol" x="550.5" y="257.167" width="18" height="13.6667"/>
  <object id="28" name="Arbol" x="534.864" y="113.939" width="18" height="13.6667"/>
  <object id="29" name="Arbol" x="454.75" y="49.5416" width="18" height="13.6667"/>
  <object id="30" name="Arbol" x="375.091" y="98.1212" width="18" height="13.6667"/>
  <object id="31" name="Arbol" x="298.455" y="51.3485" width="13.4545" height="11.4849"/>
 </objectgroup>
 <layer id="3" name="Decoracion" width="40" height="20">
  <data encoding="csv">
0,0,0,0,0,0,0,0,0,0,0,0,0,0,0,0,0,0,0,0,0,0,0,0,0,0,0,0,0,0,0,0,0,0,0,0,0,0,0,0,
0,0,216,217,0,0,0,0,0,0,0,0,0,0,174,0,0,0,214,215,0,0,0,0,0,0,0,0,216,217,0,0,0,117,0,0,0,232,233,0,
0,0,226,227,0,0,0,0,0,0,214,215,0,0,0,0,0,0,224,225,0,0,0,0,0,0,0,0,226,227,0,0,0,0,0,0,117,0,0,0,
0,0,236,237,0,0,0,0,0,0,224,225,0,0,0,0,0,0,234,235,0,0,0,117,0,0,0,0,236,237,0,0,0,0,0,0,0,0,0,0,
0,0,0,0,0,0,0,0,0,0,234,235,0,0,0,0,0,0,0,0,0,0,0,216,217,0,0,0,0,0,0,0,0,0,0,0,0,117,0,0,
0,0,0,117,0,117,0,0,0,0,0,0,0,0,216,217,0,0,0,0,0,117,0,226,227,0,0,0,0,0,0,0,0,216,217,0,0,0,0,0,
0,0,0,0,0,0,0,0,0,0,0,0,0,0,226,227,0,174,0,0,0,0,0,236,237,0,0,0,0,0,0,117,0,226,227,0,232,233,117,0,
0,0,117,0,0,0,0,0,0,0,174,0,0,0,236,237,0,0,0,90,90,90,0,0,0,0,0,0,0,0,0,0,0,236,237,0,0,0,0,0,
0,0,0,0,0,0,0,216,217,0,0,0,0,0,0,0,0,0,0,90,90,90,90,90,90,0,117,0,0,0,0,0,0,0,0,0,0,0,0,0,
0,0,0,0,0,0,0,226,227,0,0,0,0,0,0,0,0,0,0,0,0,0,90,90,90,0,0,0,0,0,0,0,0,0,0,0,0,0,0,0,
0,0,0,0,0,0,0,236,237,0,0,0,0,0,0,0,0,0,0,0,0,0,90,90,90,0,0,0,0,0,0,0,0,0,0,0,0,0,0,0,
0,0,0,0,0,0,0,0,0,0,0,0,0,0,0,0,0,0,0,0,0,214,215,0,0,0,0,0,0,0,0,0,0,0,117,0,0,0,0,0,
0,0,117,0,0,0,0,0,0,0,0,117,0,0,0,0,174,0,0,0,0,224,225,0,0,0,0,0,0,0,0,0,0,0,0,0,0,0,0,0,
0,0,0,0,0,0,0,0,0,0,0,0,0,0,0,216,217,0,0,0,0,234,235,0,0,0,216,217,0,0,0,0,0,0,0,0,0,0,0,0,
0,0,0,0,0,0,0,0,0,0,0,0,0,0,0,226,227,0,0,0,0,0,0,0,0,0,226,227,0,0,0,0,0,0,216,217,0,0,0,0,
0,0,0,216,217,0,0,0,0,0,214,215,0,0,0,236,237,0,0,0,0,0,0,0,0,0,236,237,0,0,0,0,0,0,226,227,0,0,0,0,
0,0,0,226,227,0,0,0,0,0,224,225,0,0,0,65,0,0,0,0,0,0,0,0,0,0,0,0,214,215,0,117,0,0,236,237,0,0,0,0,
0,0,0,236,237,0,0,0,0,0,234,235,0,0,117,0,0,0,0,0,0,0,0,0,65,174,0,0,224,225,0,0,0,0,0,0,0,0,117,0,
0,0,0,0,0,0,117,0,0,0,0,0,0,0,65,0,0,0,0,0,0,0,0,74,65,0,65,0,234,235,0,0,0,0,232,233,0,0,0,0,
0,0,0,0,0,0,0,0,0,0,0,0,0,0,0,0,0,0,0,0,0,0,0,174,65,65,0,0,0,0,0,0,0,0,0,0,0,0,0,0
</data>
 </layer>
</map>
